X:1
T:Title
%%score 1 { 2 | 3 }
L:1/8
Q:1/4=95
M:4/4
K:Eb
V:1 treble nm="Grand Piano, Soprano"
V:2 bass nm="Choir Pad, The Prospect, Gervase Smit"
V:3 bass 
V:1
 E2 [EG]2 [EG][EG] [DF]2 | E[EG] [EB]2 [EB][Ec] [EB]2- | [EB][EB] [Ec]2 [Ec][Ec] [EB]2 | %3
w: By~H.~W.~Lanning * * * *|||
 [EG][EB] [EB]2 [DA][EG] [DF]2- | [DF][DF] [EG]2 [EG][EG] [DF]2 | E[EG] [GB]2 [GB][Ac] [GB]2- | %6
w: |||
 [GB][GB] [Ac]2 [Ac][Ae] [GB]2 | E[EF] [EG]2 [DF]>[DF] E2- | E2 [EB]2 [EG][GB] [GB]2- | %9
w: |||
 [GB]2 [Ac]2 [EA][Ac] [GB]2- | [GB][GB] [Ac]2 [Ac][Ae] [GB]2 | E[EF] [EG]2 [DF]>[DF] E2- | E6 z2 |] %13
w: ||||
V:2
 G,2 B,2 B,B, A,2 | G,B, G,2 G,A, G,2- | G,G, A,2 A,A, G,2 | B,G, B,2 B,B, B,2- | %4
 B,B, B,2 B,B, A,2 | G,B,[K:treble] E2 EE E2- | EE E2 EE E2 | B,C B,2 A,>A, G,2- | %8
 G,2 G,2 B,[K:treble]E E2- | E2 E2 CE E2- | EE E2 EE E2 | B,C B,2 A,>A, G,2- | G,6 z2 |] %13
V:3
 E,2 E,2 E,E, B,,2 | E,E, E,2 E,E, E,2- | E,E, A,,2 A,,C, E,2 | E,E, G,2 F,E, B,,2- | %4
 B,,B,, E,2 E,E, B,,2 | E,E, E,2 E,E, E,2- | E,E, A,,2 A,,C, E,2 | G,A, z2 B,,>B,, E,2- | %8
 E,2 E,2 E,E, E,2- | E,2 A,2 A,A, E,2- | E,E, A,2 A,,C, E,2 | G,A, z2 B,,>B,, E,2- | E,6 z2 |] %13

